packages/foundations/assets/icons/functional/images/communication/paper_plane_12.svg

<svg width="12" height="12" viewBox="0 0 12 12" fill="none" xmlns="http://www.w3.org/2000/svg">
<g clip-path="url(#clip0_231_146)">
<path fill-rule="evenodd" clip-rule="evenodd" d="M10.6265 1.37352C10.7904 1.54919 10.849 1.79506 10.7553 2.01755L7.38284 10.4253C7.28919 10.6478 7.07839 10.8 6.83251 10.8C6.55145 10.7883 6.34065 10.6243 6.27044 10.3902L5.11116 6.88887L1.60986 5.72959C1.37568 5.65938 1.21176 5.43689 1.20001 5.19095C1.20001 4.93333 1.34055 4.71083 1.57473 4.61719L9.98247 1.24474C10.205 1.15103 10.4508 1.2096 10.6265 1.37352ZM9.13933 2.86069L3.53027 5.10899L5.76688 5.84674C5.94255 5.91694 6.08308 6.04579 6.1416 6.23314L6.87934 8.46975L9.13933 2.86069Z" fill="#1A1C1F"/>
</g>
<defs>
<clipPath id="clip0_231_146">
<rect width="12" height="12" fill="white"/>
</clipPath>
</defs>
</svg>

<svg xmlns="http://www.w3.org/2000/svg" width="12" height="12" fill="none"><g clip-path="url(#a)"><path fill="#1A1C1F" fill-rule="evenodd" d="M10.627 1.374a.6.6 0 0 1 .128.644l-3.372 8.407a.6.6 0 0 1-.55.375c-.282-.012-.492-.176-.563-.41L5.111 6.89 1.61 5.729a.59.59 0 0 1-.41-.538c0-.258.14-.48.375-.574l8.407-3.372a.6.6 0 0 1 .645.129M9.139 2.86 3.53 5.109l2.237.738c.176.07.316.199.375.386l.737 2.237z" clip-rule="evenodd"/></g><defs><clipPath id="a"><path fill="#fff" d="M0 0h12v12H0z"/></clipPath></defs></svg>
